X:6707
T:Hampstead Heath,bass part. JNu.43
M:6/8
Q:100
S:James Nuttall MS,c1830?,Rossendale,East Lancs.
O:England
A:East Lancashire
Z:Chris Partington
K:Bb
"secundo,read as bass clef"
z|Gdg cea|dfc' g2z|Bdg cea|dgb d2z|!
GBc Acd|Bde ceg|dgb dac'|g3g2::!
z|G3G3|G3G3|G3G3|G3G3|!
a2af2f|=c2cd2f|g2ea2A|d2AD2z|!
G3G3|G2gg2z|G3G2B|c3B2z|!
g3g3|c2^cd3|Bdg cea|d3d2|]


